icon-themes/breeze_svg/cmd/lc_shadowcursor.svg

<svg viewBox="0 0 24 24" xmlns="http://www.w3.org/2000/svg"><path d="m7 4v1 1h1 1c.5235988 0 1-.4764 1-1s-.4764012-1-1-1h-1zm1 3v13h1 1l3.90625-4.6875 6.09375-.3125-10-8h-1z" fill="#b3b3b3"/><path d="m7 4a1 1 0 0 0 -1 1 1 1 0 0 0 1 1 1 1 0 0 0 1-1 1 1 0 0 0 -1-1zm1 3 .0058594 13 3.8945316-4.699219 6.099609-.300781z" fill="#4d4d4d"/></svg>

<svg xmlns="http://www.w3.org/2000/svg" viewBox="0 0 24 24">
 <path 
     style="fill:#b3b3b3" 
     d="M 7 4 L 7 5 L 7 6 L 8 6 L 9 6 C 9.5235988 6 10 5.5236 10 5 C 10 4.4764 9.5235988 4 9 4 L 8 4 L 7 4 z M 8 7 L 8 20 L 9 20 L 10 20 L 13.90625 15.3125 L 20 15 L 10 7 L 9 7 L 8 7 z "
     />
 <path 
     style="fill:#4d4d4d" 
     d="M 7 4 A 1 1 0 0 0 6 5 A 1 1 0 0 0 7 6 A 1 1 0 0 0 8 5 A 1 1 0 0 0 7 4 z M 8 7 L 8.0058594 20 L 11.900391 15.300781 L 18 15 L 8 7 z "
     />
 </svg>
